src/img/icons/ticket.svg

<svg viewBox="0 0 576 512" xmlns="http://www.w3.org/2000/svg"><path d="m64 64c-35.3 0-64 28.7-64 64v64c0 8.8 7.4 15.7 15.7 18.6 18.8 6.5 32.3 24.4 32.3 45.4s-13.5 38.9-32.3 45.4c-8.3 2.9-15.7 9.8-15.7 18.6v64c0 35.3 28.7 64 64 64h448c35.3 0 64-28.7 64-64v-64c0-8.8-7.4-15.7-15.7-18.6-18.8-6.5-32.3-24.4-32.3-45.4s13.5-38.9 32.3-45.4c8.3-2.9 15.7-9.8 15.7-18.6v-64c0-35.3-28.7-64-64-64zm64 112v160c0 8.8 7.2 16 16 16h288c8.8 0 16-7.2 16-16v-160c0-8.8-7.2-16-16-16h-288c-8.8 0-16 7.2-16 16zm-32-16c0-17.7 14.3-32 32-32h320c17.7 0 32 14.3 32 32v192c0 17.7-14.3 32-32 32h-320c-17.7 0-32-14.3-32-32z" fill="#fff"/></svg>

<svg xmlns="http://www.w3.org/2000/svg" viewBox="0 0 576 512"><!--! Font Awesome Pro 6.4.0 by @fontawesome - https://fontawesome.com License - https://fontawesome.com/license (Commercial License) Copyright 2023 Fonticons, Inc. --><path fill="white" d="M64 64C28.7 64 0 92.7 0 128v64c0 8.8 7.4 15.7 15.7 18.6C34.5 217.1 48 235 48 256s-13.5 38.9-32.3 45.4C7.4 304.3 0 311.2 0 320v64c0 35.3 28.7 64 64 64H512c35.3 0 64-28.7 64-64V320c0-8.8-7.4-15.7-15.7-18.6C541.5 294.9 528 277 528 256s13.5-38.9 32.3-45.4c8.3-2.9 15.7-9.8 15.7-18.6V128c0-35.3-28.7-64-64-64H64zm64 112l0 160c0 8.8 7.2 16 16 16H432c8.8 0 16-7.2 16-16V176c0-8.8-7.2-16-16-16H144c-8.8 0-16 7.2-16 16zM96 160c0-17.7 14.3-32 32-32H448c17.7 0 32 14.3 32 32V352c0 17.7-14.3 32-32 32H128c-17.7 0-32-14.3-32-32V160z"/></svg>
